X:1
T:Title
%%score { ( 1 3 ) | ( 2 4 ) }
L:1/8
M:4/4
K:F
V:1 treble nm="Grand Piano"
V:3 treble 
V:2 bass 
V:4 bass 
V:1
 z4 z2[Q:1/4=100] C>C | [A,F]2 [B,F]2 [CF]2 [DG]2 | F>E D>E [A,F]2 [CF]>G | A2 A2 A2 [DFB]2 | %4
 [FA]>[EG] [EG]>[_E^F] [=EG]2 [Gc]>[GB] | [FA]2 [EG]2 F2 F>F | E2 [=B,D]2 C2 C>D | %7
 [CE]2 [CG]2 [=B,G]>[B,G] [FA]>[F=B] |[M:3/4] [Ec]3 C C2 |[M:1/4] A>B |[M:4/4] c6 z2 | %11
 d2 E4 [EG]>[_EA] | [EB]2 [Ec]2 [Ee]2 [Ed]2 | c6 c>A | F2 F2 G2 [FA]2 | %15
[M:9/8] [FB]2 [Fc]- [Fc] [Fd]2- [Fd][Fd]>[Fd] |[M:4/4] [Fc]6 [Ec]2 |[M:3/4] [Ff]6 |] %18
V:2
 z4 z2 C,>C, | [F,,C,]2 [G,,C,]2 [A,,F,]2 [B,,B,]2 | %2
 [C,A,C]>[C,G,B,] [C,F,B,]>[C,G,B,] [F,,F,]2 [A,,F,]>[C,E,C] | [F,C]2 [E,G,^C]2 [D,F,D]2 B,,2 | %4
 [C,C]>[C,C] [C,C]>[C,C] [C,C]2 [E,C]>[E,C] | [F,C]2 [^C,B,]2 [D,A,]2 [D,A,D]>[D,A,C] | %6
 [E,_A,=B,]2 [_A,,E,]2 [=A,,E,]2 [D,^F,]>[D,F,C] | %7
 [G,,G,]2 [G,,E,]2 [G,,F,]>[G,,F,] [G,,G,]>[G,,G,] |[M:3/4] [C,G,]3 [C,E,] [C,E,]2 | %9
[M:1/4][K:treble] F>G |[M:4/4] A6[K:bass] z2 | [G,E]2 z2 z4 | [C,G,]2 [C,A,]2 [C,C]2 [C,B,]2 | %13
 [F,A,F]6 [F,A,F]>[F,CF] | [F,A,]2 [F,A,]2 [E,B,C]2 [_E,C]2 | %15
[M:9/8] [D,B,]2 [C,A,]- [C,A,] [B,,B,]2- [B,,B,][=B,,_A,]>[B,,A,] |[M:4/4] A,4 C2 z2 | %17
[M:3/4] [F,,F,A,]6 |] %18
V:3
 x8 | x8 | x8 | x8 | x8 | x8 | x8 | x8 |[M:3/4] x6 |[M:1/4] x2 |[M:4/4] z2 C>C C2 d2 | x8 | x8 | %13
 x8 | x8 |[M:9/8] x9 |[M:4/4] x8 |[M:3/4] x6 |] %18
V:4
 x8 | x8 | x8 | x8 | x8 | x8 | x8 | x8 |[M:3/4] x6 |[M:1/4][K:treble] x2 | %10
[M:4/4] z2[K:bass] F,>F, F,2 [F,A,F]2 | B,2- [C,B,C]4 [C,B,]>[C,^F,] | x8 | x8 | x8 |[M:9/8] x9 | %16
[M:4/4] C,2 (3C,F,A,- A,2 [C,B,]2 |[M:3/4] x6 |] %18

